img/header-icon-2.svg

<svg width="320" height="790" fill="none" xmlns="http://www.w3.org/2000/svg"><g opacity=".08" stroke="#7D869D" stroke-width="10" stroke-miterlimit="10" stroke-linecap="round"><path d="M283.956 723.806c-6.558-16.712-27.343-47.323-61.376-48.456 24.788-6.7 28.922-21.472 28.922-21.472s-34.123 6.321-55.518-3.558c4.923-9.448 18.449-14.327 27.081-12.242-27.661-33.316-91.357-3.943-99.885 18.998-8.528 22.941 2.754 65.595 27.562 76.891 24.808 11.297 30.648 23.712 30.648 23.712s5.488-13.211-8.351-30.446c18.426 20.638 39.065 22.709 46.483 19.293-16.107-8.182-21.28-25.991-19.995-25.287 44.359 24.409 84.429 2.567 84.429 2.567zm-70.223-27.143c-13.968-7.297-86.86-40.049-117.702-48.853m84.775 33.452c8.36-.87 17.239-4.605 21.567-7.804m-24.521 6.579c1.548 1.1 5.089 17.336 12.839 21.546"/><path d="M164.264 649.647c-7.065 2.563-15.541 8.525-18.852 16.497-1.472 3.546-1.352 14.092 3.099 21.431"/></g><path d="M267.168 33.79c-29.563 27.526-54.849 57.77-98.523 83.184-43.674 25.414-82.742 78.637-62.205 169.017 93.54-22.823 113.694-97.561 118.874-109.731 5.18-12.169 41.854-142.47 41.854-142.47zm-.787.735C243.196 69.554 77.333 327.616 66.654 355.156" opacity=".08" stroke="#505666" stroke-width="10" stroke-miterlimit="10" stroke-linecap="round"/></svg>

<svg width="320" height="790" viewBox="0 0 320 790" fill="none" xmlns="http://www.w3.org/2000/svg">
<g opacity="0.08">
<path d="M283.956 723.806C277.398 707.094 256.613 676.483 222.58 675.35C247.368 668.65 251.502 653.878 251.502 653.878C251.502 653.878 217.379 660.199 195.984 650.32C200.907 640.872 214.433 635.993 223.065 638.078C195.404 604.762 131.708 634.135 123.18 657.076C114.652 680.017 125.934 722.671 150.742 733.967C175.55 745.264 181.39 757.679 181.39 757.679C181.39 757.679 186.878 744.468 173.039 727.233C191.465 747.871 212.104 749.942 219.522 746.526C203.415 738.344 198.242 720.535 199.527 721.239C243.886 745.648 283.956 723.806 283.956 723.806Z" stroke="#7D869D" stroke-width="10" stroke-miterlimit="10" stroke-linecap="round"/>
<path d="M213.733 696.663C199.765 689.366 126.873 656.614 96.0313 647.81" stroke="#7D869D" stroke-width="10" stroke-miterlimit="10" stroke-linecap="round"/>
<path d="M180.806 681.262C189.166 680.392 198.045 676.657 202.373 673.458" stroke="#7D869D" stroke-width="10" stroke-miterlimit="10" stroke-linecap="round"/>
<path d="M177.852 680.037C179.4 681.137 182.941 697.373 190.691 701.583" stroke="#7D869D" stroke-width="10" stroke-miterlimit="10" stroke-linecap="round"/>
<path d="M164.264 649.647C157.199 652.21 148.723 658.172 145.412 666.144C143.94 669.69 144.06 680.236 148.511 687.575" stroke="#7D869D" stroke-width="10" stroke-miterlimit="10" stroke-linecap="round"/>
</g>
<g opacity="0.08">
<path d="M267.168 33.7895C237.605 61.3165 212.319 91.5606 168.645 116.974C124.971 142.388 85.9027 195.611 106.44 285.991C199.98 263.168 220.134 188.43 225.314 176.26C230.494 164.091 267.168 33.7895 267.168 33.7895Z" stroke="#505666" stroke-width="10" stroke-miterlimit="10" stroke-linecap="round"/>
<path d="M266.381 34.5247C243.196 69.5536 77.3334 327.616 66.6536 355.156" stroke="#505666" stroke-width="10" stroke-miterlimit="10" stroke-linecap="round"/>
</g>
</svg>
